client/src/assets/images/bg.svg

<svg viewBox="0 0 1193.921 818.625" xmlns="http://www.w3.org/2000/svg"><g stroke="#0274b3" stroke-linecap="round" stroke-miterlimit="10" stroke-width="3"><g opacity=".35"><g fill="none"><path d="m157.421 103.625h186"/><path d="m361.921 104.125h-6"/><path d="m821.921 110.125h-186"/><path d="m617.421 109.625h6"/><path d="m504.421 177.5h-80.948"/><path d="m417.421 178h.612"/><path d="m410.421 177.75h-11.5"/><path d="m730.921 352.5h-80.948"/><path d="m643.921 353h.612"/><path d="m584.921 210h80.949"/><path d="m671.921 209.5h-.611"/><path d="m678.921 209.75h11.5"/><path d="m550.421 306.75h-11.5"/><path d="m544.671 312.5v-11.5"/><path d="m706.421 161.75h-11.5"/><path d="m700.671 167.5v-11.5"/><path d="m511.421 115.75h-11.5"/><path d="m505.671 121.5v-11.5"/><path d="m348.483 374.318v8.882a43.638 43.638 0 0 1 -43.588 43.587h-35.807v-41.166h24.044a82.888 82.888 0 0 0 82.8-82.794v-8.883h-39.211v8.883a43.638 43.638 0 0 1 -43.588 43.587h-62.271v-35.287h7.381a82.888 82.888 0 0 0 82.8-82.794v-8.883h-39.212v8.883a43.638 43.638 0 0 1 -43.588 43.587h-40.708v66.652h-6.921a43.638 43.638 0 0 1 -43.588-43.587v-8.885h-39.206v8.883a82.888 82.888 0 0 0 82.8 82.794h5.94v37.247h-37.311a43.638 43.638 0 0 1 -43.588-43.587v-8.883h-39.207v8.883a82.888 82.888 0 0 0 82.8 82.794h37.306v160.894h72.533v-149.125h35.806a82.888 82.888 0 0 0 82.8-82.794v-8.883z"/></g><path d="m302.029 405.272v-11.144a35.6 35.6 0 0 1 35.6-35.6h107.2a35.6 35.6 0 0 1 35.6 35.6v11.144z" fill="#44b4e7"/><path d="m253.624 320.818v-11.144a35.6 35.6 0 0 1 35.6-35.6h107.2a35.6 35.6 0 0 1 35.6 35.6v11.144z" fill="#44b4e7"/><path d="m38.747 310.818v-11.144a35.6 35.6 0 0 1 35.6-35.6h107.2a35.6 35.6 0 0 1 35.6 35.6v11.144z" fill="#44b4e7"/><path d="m1.5 387.272v-11.144a35.6 35.6 0 0 1 35.6-35.6h107.2a35.6 35.6 0 0 1 35.6 35.6v11.144z" fill="#44b4e7"/><path d="m195.575 234.364v-11.143a35.6 35.6 0 0 1 35.6-35.6h107.2a35.6 35.6 0 0 1 35.6 35.6v11.144z" fill="#44b4e7"/><path d="m773.483 576.318v8.882a43.638 43.638 0 0 1 -43.588 43.587h-35.807v-41.166h24.044a82.888 82.888 0 0 0 82.8-82.794v-8.883h-39.211v8.883a43.638 43.638 0 0 1 -43.588 43.587h-62.271v-35.287h7.381a82.888 82.888 0 0 0 82.8-82.794v-8.883h-39.212v8.883a43.638 43.638 0 0 1 -43.588 43.587h-40.708v66.652h-6.921a43.638 43.638 0 0 1 -43.588-43.587v-8.885h-39.206v8.883a82.888 82.888 0 0 0 82.8 82.794h5.94v37.247h-37.311a43.638 43.638 0 0 1 -43.588-43.587v-8.883h-39.207v8.883a82.888 82.888 0 0 0 82.8 82.794h37.306v160.894h72.533v-149.125h35.806a82.888 82.888 0 0 0 82.8-82.794v-8.883z" fill="none"/><path d="m727.029 607.272v-11.144a35.6 35.6 0 0 1 35.6-35.6h107.2a35.6 35.6 0 0 1 35.6 35.6v11.144z" fill="#44b4e7"/><path d="m678.624 522.818v-11.144a35.6 35.6 0 0 1 35.6-35.6h107.2a35.6 35.6 0 0 1 35.6 35.6v11.144z" fill="#44b4e7"/><path d="m463.747 512.818v-11.144a35.6 35.6 0 0 1 35.6-35.6h107.2a35.6 35.6 0 0 1 35.6 35.6v11.144z" fill="#44b4e7"/><path d="m426.5 589.272v-11.144a35.6 35.6 0 0 1 35.6-35.6h107.2a35.6 35.6 0 0 1 35.6 35.6v11.144z" fill="#44b4e7"/><path d="m620.575 436.364v-11.143a35.6 35.6 0 0 1 35.6-35.6h107.2a35.6 35.6 0 0 1 35.6 35.6v11.144z" fill="#44b4e7"/><path d="m1060.483 255.318v8.882a43.638 43.638 0 0 1 -43.588 43.587h-35.807v-41.166h24.044a82.888 82.888 0 0 0 82.8-82.794v-8.883h-39.207v8.883a43.638 43.638 0 0 1 -43.588 43.587h-62.275v-35.287h7.381a82.888 82.888 0 0 0 82.8-82.794v-8.883h-39.212v8.883a43.638 43.638 0 0 1 -43.588 43.587h-40.708v66.652h-6.921a43.638 43.638 0 0 1 -43.588-43.587v-8.885h-39.206v8.883a82.888 82.888 0 0 0 82.8 82.794h5.94v37.247h-37.311a43.638 43.638 0 0 1 -43.588-43.587v-8.883h-39.207v8.883a82.888 82.888 0 0 0 82.8 82.794h37.306v279.894h72.533v-268.125h35.806a82.888 82.888 0 0 0 82.8-82.794v-8.883z" fill="none"/><path d="m1014.029 286.272v-11.144a35.6 35.6 0 0 1 35.6-35.6h107.2a35.6 35.6 0 0 1 35.6 35.6v11.144z" fill="#44b4e7"/><path d="m965.624 201.818v-11.144a35.6 35.6 0 0 1 35.6-35.6h107.2a35.6 35.6 0 0 1 35.6 35.6v11.144z" fill="#44b4e7"/><path d="m750.747 191.818v-11.144a35.6 35.6 0 0 1 35.6-35.6h107.2a35.6 35.6 0 0 1 35.6 35.6v11.144z" fill="#44b4e7"/><path d="m713.5 268.272v-11.144a35.6 35.6 0 0 1 35.6-35.6h107.2a35.6 35.6 0 0 1 35.6 35.6v11.144z" fill="#44b4e7"/><path d="m907.575 115.364v-11.143a35.6 35.6 0 0 1 35.6-35.6h107.2a35.6 35.6 0 0 1 35.6 35.6v11.144z" fill="#44b4e7"/></g><g opacity=".05"><path d="m1060.483 255.318v8.882a43.638 43.638 0 0 1 -43.588 43.587h-35.807v-41.166h24.044a82.888 82.888 0 0 0 82.8-82.794v-8.883h-39.207v8.883a43.638 43.638 0 0 1 -43.588 43.587h-62.275v-35.287h7.381a82.888 82.888 0 0 0 82.8-82.794v-8.883h-39.212v8.883a43.638 43.638 0 0 1 -43.588 43.587h-40.708v66.652h-6.921a43.638 43.638 0 0 1 -43.588-43.587v-8.885h-39.206v8.883a82.888 82.888 0 0 0 82.8 82.794h5.94v37.247h-37.311a43.638 43.638 0 0 1 -43.588-43.587v-8.883h-39.207v8.883a82.888 82.888 0 0 0 82.8 82.794h37.306v279.894h72.533v-268.125h35.806a82.888 82.888 0 0 0 82.8-82.794v-8.883z" fill="none"/><g fill="#44b4e7"><path d="m1014.029 286.272v-11.144a35.6 35.6 0 0 1 35.6-35.6h107.2a35.6 35.6 0 0 1 35.6 35.6v11.144z"/><path d="m965.624 201.818v-11.144a35.6 35.6 0 0 1 35.6-35.6h107.2a35.6 35.6 0 0 1 35.6 35.6v11.144z"/><path d="m750.747 191.818v-11.144a35.6 35.6 0 0 1 35.6-35.6h107.2a35.6 35.6 0 0 1 35.6 35.6v11.144z"/><path d="m713.5 268.272v-11.144a35.6 35.6 0 0 1 35.6-35.6h107.2a35.6 35.6 0 0 1 35.6 35.6v11.144z"/><path d="m907.575 115.364v-11.143a35.6 35.6 0 0 1 35.6-35.6h107.2a35.6 35.6 0 0 1 35.6 35.6v11.144z"/></g></g><g fill="none"><g opacity=".35"><path d="m629.649 61.5h-80.949"/><path d="m542.649 62h.611"/></g><g opacity=".35"><path d="m982.649 1.5h-80.949"/><path d="m895.649 2h.611"/></g><path d="m535.649 61.75h-11.5" opacity=".35"/><g opacity=".35"><path d="m349.649 34.75h-11.5"/><path d="m343.899 40.5v-11.5"/></g><path d="m41.649 21.625h186" opacity=".35"/><path d="m246.149 22.125h-6" opacity=".35"/></g></g></svg>

<svg xmlns="http://www.w3.org/2000/svg" viewBox="0 0 1193.921 818.625"><defs><style>.a,.e{opacity:0.35;}.b,.e{fill:none;}.b,.c,.e{stroke:#0274b3;stroke-linecap:round;stroke-miterlimit:10;stroke-width:3px;}.c{fill:#44b4e7;}.d{opacity:0.05;}</style></defs><title>Asset 8</title><g class="a"><line class="b" x1="157.421" y1="103.625" x2="343.421" y2="103.625"/><line class="b" x1="361.921" y1="104.125" x2="355.921" y2="104.125"/><line class="b" x1="821.921" y1="110.125" x2="635.921" y2="110.125"/><line class="b" x1="617.421" y1="109.625" x2="623.421" y2="109.625"/><line class="b" x1="504.421" y1="177.5" x2="423.473" y2="177.5"/><line class="b" x1="417.421" y1="178" x2="418.033" y2="178"/><line class="b" x1="410.421" y1="177.75" x2="398.921" y2="177.75"/><line class="b" x1="730.921" y1="352.5" x2="649.973" y2="352.5"/><line class="b" x1="643.921" y1="353" x2="644.533" y2="353"/><line class="b" x1="584.921" y1="210" x2="665.87" y2="210"/><line class="b" x1="671.921" y1="209.5" x2="671.31" y2="209.5"/><line class="b" x1="678.921" y1="209.75" x2="690.421" y2="209.75"/><line class="b" x1="550.421" y1="306.75" x2="538.921" y2="306.75"/><line class="b" x1="544.671" y1="312.5" x2="544.671" y2="301"/><line class="b" x1="706.421" y1="161.75" x2="694.921" y2="161.75"/><line class="b" x1="700.671" y1="167.5" x2="700.671" y2="156"/><line class="b" x1="511.421" y1="115.75" x2="499.921" y2="115.75"/><line class="b" x1="505.671" y1="121.5" x2="505.671" y2="110"/><path class="b" d="M348.483,374.318V383.2a43.638,43.638,0,0,1-43.588,43.587H269.088V385.621h24.044a82.888,82.888,0,0,0,82.8-82.794v-8.883H336.721v8.883a43.638,43.638,0,0,1-43.588,43.587H230.862V311.127h7.381a82.888,82.888,0,0,0,82.8-82.794V219.45H281.831v8.883a43.638,43.638,0,0,1-43.588,43.587H197.535v66.652h-6.921a43.638,43.638,0,0,1-43.588-43.587V286.1H107.82v8.883a82.888,82.888,0,0,0,82.8,82.794h5.94v37.247H159.249a43.638,43.638,0,0,1-43.588-43.587v-8.883H76.454v8.883a82.888,82.888,0,0,0,82.8,82.794h37.306V615.125h72.533V466h35.806a82.888,82.888,0,0,0,82.8-82.794v-8.883Z"/><path class="c" d="M302.029,405.272V394.128a35.6,35.6,0,0,1,35.6-35.6h107.2a35.6,35.6,0,0,1,35.6,35.6v11.144Z"/><path class="c" d="M253.624,320.818V309.674a35.6,35.6,0,0,1,35.6-35.6h107.2a35.6,35.6,0,0,1,35.6,35.6v11.144Z"/><path class="c" d="M38.747,310.818V299.674a35.6,35.6,0,0,1,35.6-35.6h107.2a35.6,35.6,0,0,1,35.6,35.6v11.144Z"/><path class="c" d="M1.5,387.272V376.128a35.6,35.6,0,0,1,35.6-35.6H144.3a35.6,35.6,0,0,1,35.6,35.6v11.144Z"/><path class="c" d="M195.575,234.364V223.221a35.6,35.6,0,0,1,35.6-35.6h107.2a35.6,35.6,0,0,1,35.6,35.6v11.144Z"/><path class="b" d="M773.483,576.318V585.2a43.638,43.638,0,0,1-43.588,43.587H694.088V587.621h24.044a82.888,82.888,0,0,0,82.8-82.794v-8.883H761.721v8.883a43.638,43.638,0,0,1-43.588,43.587H655.862V513.127h7.381a82.888,82.888,0,0,0,82.8-82.794V421.45H706.831v8.883a43.638,43.638,0,0,1-43.588,43.587H622.535v66.652h-6.921a43.638,43.638,0,0,1-43.588-43.587V488.1H532.82v8.883a82.888,82.888,0,0,0,82.8,82.794h5.94v37.247H584.249a43.638,43.638,0,0,1-43.588-43.587v-8.883H501.454v8.883a82.888,82.888,0,0,0,82.8,82.794h37.306V817.125h72.533V668h35.806a82.888,82.888,0,0,0,82.8-82.794v-8.883Z"/><path class="c" d="M727.029,607.272V596.128a35.6,35.6,0,0,1,35.6-35.6h107.2a35.6,35.6,0,0,1,35.6,35.6v11.144Z"/><path class="c" d="M678.624,522.818V511.674a35.6,35.6,0,0,1,35.6-35.6h107.2a35.6,35.6,0,0,1,35.6,35.6v11.144Z"/><path class="c" d="M463.747,512.818V501.674a35.6,35.6,0,0,1,35.6-35.6h107.2a35.6,35.6,0,0,1,35.6,35.6v11.144Z"/><path class="c" d="M426.5,589.272V578.128a35.6,35.6,0,0,1,35.6-35.6H569.3a35.6,35.6,0,0,1,35.6,35.6v11.144Z"/><path class="c" d="M620.575,436.364V425.221a35.6,35.6,0,0,1,35.6-35.6h107.2a35.6,35.6,0,0,1,35.6,35.6v11.144Z"/><path class="b" d="M1060.483,255.318V264.2a43.638,43.638,0,0,1-43.588,43.587H981.088V266.621h24.044a82.888,82.888,0,0,0,82.8-82.794v-8.883h-39.207v8.883a43.638,43.638,0,0,1-43.588,43.587H942.862V192.127h7.381a82.888,82.888,0,0,0,82.8-82.794V100.45H993.831v8.883a43.638,43.638,0,0,1-43.588,43.587H909.535v66.652h-6.921a43.638,43.638,0,0,1-43.588-43.587V167.1H819.82v8.883a82.888,82.888,0,0,0,82.8,82.794h5.94v37.247H871.249a43.638,43.638,0,0,1-43.588-43.587v-8.883H788.454v8.883a82.888,82.888,0,0,0,82.8,82.794h37.306V615.125h72.533V347h35.806a82.888,82.888,0,0,0,82.8-82.794v-8.883Z"/><path class="c" d="M1014.029,286.272V275.128a35.6,35.6,0,0,1,35.6-35.6h107.2a35.6,35.6,0,0,1,35.6,35.6v11.144Z"/><path class="c" d="M965.624,201.818V190.674a35.6,35.6,0,0,1,35.6-35.6h107.2a35.6,35.6,0,0,1,35.6,35.6v11.144Z"/><path class="c" d="M750.747,191.818V180.674a35.6,35.6,0,0,1,35.6-35.6h107.2a35.6,35.6,0,0,1,35.6,35.6v11.144Z"/><path class="c" d="M713.5,268.272V257.128a35.6,35.6,0,0,1,35.6-35.6H856.3a35.6,35.6,0,0,1,35.6,35.6v11.144Z"/><path class="c" d="M907.575,115.364V104.221a35.6,35.6,0,0,1,35.6-35.6h107.2a35.6,35.6,0,0,1,35.6,35.6v11.144Z"/></g><g class="d"><path class="b" d="M1060.483,255.318V264.2a43.638,43.638,0,0,1-43.588,43.587H981.088V266.621h24.044a82.888,82.888,0,0,0,82.8-82.794v-8.883h-39.207v8.883a43.638,43.638,0,0,1-43.588,43.587H942.862V192.127h7.381a82.888,82.888,0,0,0,82.8-82.794V100.45H993.831v8.883a43.638,43.638,0,0,1-43.588,43.587H909.535v66.652h-6.921a43.638,43.638,0,0,1-43.588-43.587V167.1H819.82v8.883a82.888,82.888,0,0,0,82.8,82.794h5.94v37.247H871.249a43.638,43.638,0,0,1-43.588-43.587v-8.883H788.454v8.883a82.888,82.888,0,0,0,82.8,82.794h37.306V615.125h72.533V347h35.806a82.888,82.888,0,0,0,82.8-82.794v-8.883Z"/><path class="c" d="M1014.029,286.272V275.128a35.6,35.6,0,0,1,35.6-35.6h107.2a35.6,35.6,0,0,1,35.6,35.6v11.144Z"/><path class="c" d="M965.624,201.818V190.674a35.6,35.6,0,0,1,35.6-35.6h107.2a35.6,35.6,0,0,1,35.6,35.6v11.144Z"/><path class="c" d="M750.747,191.818V180.674a35.6,35.6,0,0,1,35.6-35.6h107.2a35.6,35.6,0,0,1,35.6,35.6v11.144Z"/><path class="c" d="M713.5,268.272V257.128a35.6,35.6,0,0,1,35.6-35.6H856.3a35.6,35.6,0,0,1,35.6,35.6v11.144Z"/><path class="c" d="M907.575,115.364V104.221a35.6,35.6,0,0,1,35.6-35.6h107.2a35.6,35.6,0,0,1,35.6,35.6v11.144Z"/></g><g class="a"><line class="b" x1="629.649" y1="61.5" x2="548.7" y2="61.5"/><line class="b" x1="542.649" y1="62" x2="543.26" y2="62"/></g><g class="a"><line class="b" x1="982.649" y1="1.5" x2="901.7" y2="1.5"/><line class="b" x1="895.649" y1="2" x2="896.26" y2="2"/></g><g class="a"><line class="b" x1="535.649" y1="61.75" x2="524.149" y2="61.75"/></g><g class="a"><line class="b" x1="349.649" y1="34.75" x2="338.149" y2="34.75"/><line class="b" x1="343.899" y1="40.5" x2="343.899" y2="29"/></g><line class="e" x1="41.649" y1="21.625" x2="227.649" y2="21.625"/><line class="e" x1="246.149" y1="22.125" x2="240.149" y2="22.125"/></svg>
